web-magafilio/image/home/icon-divulgacao.svg

<svg width="55" height="59" viewBox="0 0 55 59" fill="none" xmlns="http://www.w3.org/2000/svg">
<path d="M53.7579 15.9402H44.2579C42.9982 15.9402 41.79 15.431 40.8992 14.5245C40.0084 13.6181 39.5079 12.3887 39.5079 11.1069V1.44019L53.7579 15.9402Z" fill="#F6B445"/>
<path d="M53.7579 15.9402V52.1902C53.7579 53.4721 53.2575 54.7014 52.3667 55.6079C51.4759 56.5143 50.2677 57.0235 49.0079 57.0235H8.63293C3.88293 57.0235 3.88293 52.1902 3.88293 52.1902V6.27352C3.88293 4.99164 4.38338 3.76226 5.27418 2.85584C6.16497 1.94941 7.37316 1.44019 8.63293 1.44019H39.5079V11.1069C39.5079 12.3887 40.0084 13.6181 40.8992 14.5245C41.79 15.431 42.9982 15.9402 44.2579 15.9402H53.7579Z" fill="#FED049"/>
<path d="M43.0704 25.6068V42.5235C43.0705 42.9995 42.9782 43.4707 42.7989 43.9103C42.6195 44.3499 42.3567 44.7492 42.0254 45.0852L41.8829 44.9402L37.1329 40.1068L30.0079 32.8568L29.8298 32.6273L41.8829 23.1902L42.0254 23.0452C42.3567 23.3812 42.6195 23.7804 42.7989 24.22C42.9782 24.6596 43.0705 25.1309 43.0704 25.6068Z" fill="#D0D7DF"/>
<path d="M11.0079 23.1902L23.0611 32.6272L22.8829 32.8568L15.7579 40.1068L9.82043 46.1485V25.6068C9.82039 25.1309 9.91268 24.6596 10.092 24.22C10.2713 23.7804 10.5342 23.3812 10.8654 23.0452L11.0079 23.1902Z" fill="#D0D7DF"/>
<path d="M37.1329 40.1068L41.8829 44.9401L42.0254 45.0851C41.6952 45.4222 41.3029 45.6896 40.8708 45.8721C40.4388 46.0546 39.9757 46.1485 39.5079 46.1484H9.82043L15.7579 40.1068L22.8829 32.8568L23.0611 32.6272L26.4454 35.2734L29.8298 32.6272L30.0079 32.8568L37.1329 40.1068Z" fill="#F1F2F2"/>
<path d="M39.5079 21.9817C39.9757 21.9816 40.4389 22.0756 40.8709 22.258C41.3029 22.4405 41.6952 22.7079 42.0254 23.045L41.8829 23.19L29.8298 32.6271L26.4454 35.2734L23.0611 32.6271L11.0079 23.19L10.8654 23.045C11.1957 22.7079 11.588 22.4405 12.02 22.258C12.452 22.0756 12.9152 21.9816 13.3829 21.9817H39.5079Z" fill="#F1F2F2"/>
<path d="M54.5975 15.0857L40.3475 0.585733C40.2377 0.474051 40.1073 0.385377 39.9639 0.324733C39.8196 0.263067 39.6645 0.231432 39.5079 0.231691H8.63295C7.0588 0.23361 5.54967 0.870757 4.43658 2.00337C3.32349 3.13599 2.69733 4.6716 2.69545 6.27336V35.2734C2.69545 35.5938 2.82056 35.9012 3.04326 36.1278C3.26596 36.3544 3.568 36.4817 3.88295 36.4817C4.19789 36.4817 4.49994 36.3544 4.72264 36.1278C4.94534 35.9012 5.07045 35.5938 5.07045 35.2734V6.27336C5.07045 5.31195 5.44578 4.38991 6.11388 3.7101C6.78198 3.03028 7.68811 2.64836 8.63295 2.64836H38.3204V11.1067C38.3223 12.7085 38.9485 14.2441 40.0616 15.3767C41.1747 16.5093 42.6838 17.1464 44.2579 17.1484H46.6329C46.9479 17.1484 47.2499 17.0211 47.4726 16.7944C47.6953 16.5678 47.8204 16.2605 47.8204 15.94C47.8204 15.6196 47.6953 15.3122 47.4726 15.0856C47.2499 14.859 46.9479 14.7317 46.6329 14.7317H44.2579C43.3131 14.7317 42.407 14.3498 41.7389 13.67C41.0708 12.9901 40.6954 12.0681 40.6954 11.1067V4.35694L52.5704 16.4403V52.19C52.5704 53.1514 52.1951 54.0735 51.527 54.7533C50.8589 55.4331 49.9528 55.815 49.0079 55.815H8.63295C8.15849 55.8406 7.68406 55.7644 7.24044 55.5912C6.79683 55.4181 6.39396 55.152 6.058 54.8101C5.72204 54.4683 5.4605 54.0584 5.29036 53.607C5.12023 53.1556 5.0453 52.6728 5.07045 52.19C5.07045 51.8696 4.94534 51.5622 4.72264 51.3356C4.49994 51.109 4.19789 50.9817 3.88295 50.9817C3.568 50.9817 3.26596 51.109 3.04326 51.3356C2.82056 51.5622 2.69545 51.8696 2.69545 52.19C2.66561 52.9916 2.79878 53.7908 3.08661 54.5375C3.37444 55.2842 3.81073 55.9625 4.36814 56.5297C4.92555 57.0968 5.59207 57.5408 6.32594 57.8337C7.05981 58.1265 7.84522 58.262 8.63295 58.2317H49.0079C50.5821 58.2298 52.0912 57.5926 53.2043 56.46C54.3174 55.3274 54.9436 53.7918 54.9454 52.19V15.94C54.9454 15.6196 54.8202 15.3123 54.5975 15.0857Z" fill="#474C54"/>
<path d="M1.50793 42.5232H6.25793C6.88675 42.5421 7.51272 42.43 8.09741 42.1938C8.6821 41.9576 9.21317 41.6022 9.658 41.1496C10.1028 40.6969 10.452 40.1566 10.6842 39.5616C10.9163 38.9667 11.0265 38.3297 11.0079 37.6899V25.6065C11.0109 25.3392 11.0575 25.0742 11.1457 24.8223L21.2941 32.7647L14.9184 39.2522C14.805 39.3637 14.7145 39.497 14.6523 39.6445C14.59 39.7919 14.5573 39.9504 14.5559 40.1109C14.5545 40.2713 14.5846 40.4304 14.6443 40.5789C14.704 40.7274 14.7922 40.8623 14.9037 40.9758C15.0152 41.0893 15.1477 41.179 15.2937 41.2397C15.4396 41.3005 15.596 41.3311 15.7537 41.3297C15.9113 41.3283 16.0672 41.2949 16.212 41.2316C16.3569 41.1683 16.488 41.0762 16.5975 40.9608L23.1917 34.2509L25.7222 36.2314C25.9297 36.3935 26.1839 36.4813 26.4454 36.4813C26.707 36.4813 26.9612 36.3935 27.1686 36.2314L29.6992 34.2509L36.2934 40.9608C36.5173 41.1809 36.8173 41.3027 37.1287 41.3C37.44 41.2972 37.7379 41.1701 37.958 40.9461C38.1782 40.7221 38.3031 40.419 38.3058 40.1022C38.3085 39.7854 38.1888 39.4801 37.9725 39.2522L31.5968 32.7647L41.7452 24.8223C41.8334 25.0742 41.88 25.3392 41.8829 25.6065V42.5232C41.8829 43.1641 41.6327 43.7788 41.1873 44.232C40.7419 44.6852 40.1378 44.9399 39.5079 44.9399H9.82043C9.50549 44.9399 9.20344 45.0672 8.98075 45.2938C8.75805 45.5204 8.63293 45.8277 8.63293 46.1482C8.63293 46.4687 8.75805 46.776 8.98075 47.0026C9.20344 47.2292 9.50549 47.3565 9.82043 47.3565H39.5079C40.7677 47.3565 41.9759 46.8473 42.8667 45.9409C43.7575 45.0345 44.2579 43.8051 44.2579 42.5232V25.6065C44.2579 24.3246 43.7575 23.0953 42.8667 22.1888C41.9759 21.2824 40.7677 20.7732 39.5079 20.7732H13.3829C12.1232 20.7732 10.915 21.2824 10.0242 22.1888C9.13338 23.0953 8.63293 24.3246 8.63293 25.6065V37.6899C8.65334 38.0126 8.60589 38.3361 8.49375 38.6387C8.38161 38.9413 8.20736 39.2161 7.98262 39.4448C7.75787 39.6735 7.4878 39.8508 7.1904 39.9649C6.893 40.079 6.57512 40.1273 6.25793 40.1065H1.50793C1.19299 40.1065 0.890945 40.2338 0.668245 40.4604C0.445546 40.687 0.320435 40.9944 0.320435 41.3149C0.320435 41.6353 0.445546 41.9427 0.668245 42.1693C0.890945 42.3959 1.19299 42.5232 1.50793 42.5232ZM39.5079 23.1899C39.6354 23.192 39.7625 23.2046 39.8879 23.2273L26.4454 33.7495L13.0029 23.2273C13.1284 23.2046 13.2555 23.192 13.3829 23.1899H39.5079Z" fill="#474C54"/>
<path d="M5.07043 46.1485C5.07043 45.828 4.94532 45.5207 4.72262 45.2941C4.49992 45.0675 4.19788 44.9402 3.88293 44.9402H1.50793C1.19299 44.9402 0.890945 45.0675 0.668245 45.2941C0.445546 45.5207 0.320435 45.828 0.320435 46.1485C0.320435 46.469 0.445546 46.7763 0.668245 47.0029C0.890945 47.2295 1.19299 47.3569 1.50793 47.3569H3.88293C4.19788 47.3569 4.49992 47.2295 4.72262 47.0029C4.94532 46.7763 5.07043 46.469 5.07043 46.1485Z" fill="#474C54"/>
</svg>

<svg width="55" height="59" fill="none" xmlns="http://www.w3.org/2000/svg"><path d="M53.758 15.94h-9.5c-1.26 0-2.468-.509-3.359-1.415a4.877 4.877 0 01-1.391-3.418V1.44l14.25 14.5z" fill="#F6B445"/><path d="M53.758 15.94v36.25c0 1.282-.5 2.511-1.391 3.418a4.709 4.709 0 01-3.36 1.416H8.634c-4.75 0-4.75-4.834-4.75-4.834V6.274c0-1.282.5-2.512 1.391-3.418A4.709 4.709 0 018.633 1.44h30.875v9.667c0 1.282.5 2.511 1.391 3.418a4.709 4.709 0 003.359 1.415h9.5z" fill="#FED049"/><path d="M43.07 25.607v16.916c0 .476-.092.948-.271 1.387-.18.44-.442.84-.774 1.175l-.142-.145-4.75-4.833-7.125-7.25-.178-.23 12.053-9.437.142-.145c.332.336.595.735.774 1.175.18.44.272.91.271 1.387zM11.008 23.19l12.053 9.437-.178.23-7.125 7.25-5.938 6.041V25.607c0-.476.093-.947.272-1.387.18-.44.442-.839.773-1.175l.143.145z" fill="#D0D7DF"/><path d="M37.133 40.107l4.75 4.833.142.145a3.55 3.55 0 01-1.154.787 3.5 3.5 0 01-1.363.276H9.82l5.938-6.041 7.125-7.25.178-.23 3.384 2.646 3.385-2.646.178.23 7.125 7.25z" fill="#F1F2F2"/><path d="M39.508 21.982c.468 0 .93.094 1.363.276.432.183.824.45 1.154.787l-.142.145-12.053 9.437-3.385 2.646-3.384-2.646-12.053-9.437-.143-.145c.33-.337.723-.605 1.155-.787a3.501 3.501 0 011.363-.276h26.125z" fill="#F1F2F2"/><path d="M54.597 15.086L40.347.586a1.186 1.186 0 00-.84-.354H8.634a5.893 5.893 0 00-4.196 1.771 6.103 6.103 0 00-1.742 4.27v29c0 .32.126.628.348.855a1.177 1.177 0 001.68 0 1.22 1.22 0 00.347-.855v-29c0-.961.376-1.883 1.044-2.563a3.532 3.532 0 012.519-1.062H38.32v8.459a6.103 6.103 0 001.742 4.27 5.894 5.894 0 004.196 1.771h2.375c.315 0 .617-.127.84-.354a1.219 1.219 0 000-1.708 1.177 1.177 0 00-.84-.354h-2.375c-.945 0-1.851-.382-2.52-1.062a3.658 3.658 0 01-1.043-2.563v-6.75L52.57 16.44v35.75c0 .961-.375 1.884-1.043 2.563a3.532 3.532 0 01-2.52 1.062H8.634a3.334 3.334 0 01-1.393-.224 3.382 3.382 0 01-1.182-.78 3.453 3.453 0 01-.768-1.204 3.503 3.503 0 01-.22-1.417c0-.32-.125-.628-.347-.854a1.177 1.177 0 00-1.68 0 1.22 1.22 0 00-.348.854c-.03.802.104 1.6.392 2.348a5.837 5.837 0 001.281 1.992 5.718 5.718 0 001.958 1.304c.734.292 1.52.428 2.307.398h40.375a5.893 5.893 0 004.196-1.772 6.103 6.103 0 001.741-4.27V15.94c0-.32-.125-.628-.348-.854z" fill="#474C54"/><path d="M1.508 42.523h4.75a4.545 4.545 0 001.84-.33 4.61 4.61 0 001.56-1.043 4.706 4.706 0 001.026-1.588 4.77 4.77 0 00.324-1.872V25.607c.003-.268.05-.533.138-.785l10.148 7.943-6.376 6.487a1.209 1.209 0 00-.362.859 1.226 1.226 0 00.348.865 1.184 1.184 0 00.85.354 1.17 1.17 0 00.844-.37l6.594-6.71 2.53 1.981a1.174 1.174 0 001.447 0l2.53-1.98 6.594 6.71a1.177 1.177 0 001.665-.015 1.22 1.22 0 00.014-1.694l-6.375-6.487 10.148-7.943c.088.252.135.517.138.785v16.916c0 .641-.25 1.256-.696 1.709a2.355 2.355 0 01-1.68.708H9.82c-.315 0-.617.127-.84.354a1.22 1.22 0 000 1.709c.223.226.525.353.84.353h29.688c1.26 0 2.468-.509 3.359-1.415a4.877 4.877 0 001.39-3.418V25.606c0-1.281-.5-2.51-1.39-3.417a4.709 4.709 0 00-3.36-1.416H13.384c-1.26 0-2.468.51-3.359 1.416a4.877 4.877 0 00-1.391 3.418V37.69a2.312 2.312 0 01-.65 1.755 2.232 2.232 0 01-.793.52 2.2 2.2 0 01-.932.141h-4.75c-.315 0-.617.128-.84.354a1.22 1.22 0 000 1.71c.223.226.525.353.84.353zm38-19.333c.127.002.255.015.38.037L26.445 33.75 13.003 23.227c.125-.022.252-.035.38-.037h26.125zM5.07 46.148c0-.32-.125-.627-.347-.854a1.177 1.177 0 00-.84-.354H1.508c-.315 0-.617.128-.84.354a1.22 1.22 0 000 1.709c.223.227.525.354.84.354h2.375c.315 0 .617-.127.84-.354a1.22 1.22 0 00.347-.855z" fill="#474C54"/></svg>
